X: 2
M: C|
L: 1/8
K: D
|:\
f/g/a fd f/g/a fd | gecA gecA |\
|: a |\
fg/a/ bg ef/g/ af | de/f/ gf e/d/c/B/ AG |\


